static/pic/controller-next.svg

<?xml version="1.0" encoding="UTF-8"?>
<svg width="36px" height="23px" viewBox="0 0 36 23" version="1.1" xmlns="http://www.w3.org/2000/svg" xmlns:xlink="http://www.w3.org/1999/xlink">
    <!-- Generator: Sketch 39.1 (31720) - http://www.bohemiancoding.com/sketch -->
    <title>Combined Shape</title>
    <desc>Created with Sketch.</desc>
    <defs></defs>
    <g id="Page-1" stroke="none" stroke-width="1" fill="none" fill-rule="evenodd">
        <g id="vol" transform="translate(-200.000000, -960.000000)" fill="#FFFFFF">
            <g id="playing" transform="translate(28.000000, 919.000000)">
                <g id="controller" transform="translate(0.000000, 37.778947)">
                    <path d="M203.500232,14.6863907 L182.145269,3.79831579 L182.145269,10.188221 L172.095875,5.06442105 L172.095875,24.9872783 L182.145269,19.8634783 L182.145269,26.283073 L203.500232,15.394998 L203.500232,23.7125625 L207.268755,23.7125625 L207.268755,6.33052632 L203.500232,6.33052632 L203.500232,14.6863907 Z" id="Combined-Shape"></path>
                </g>
            </g>
        </g>
    </g>
</svg>

<svg width="36" height="23" viewBox="0 0 36 23" xmlns="http://www.w3.org/2000/svg"><title>Combined Shape</title><g fill="none" fill-rule="evenodd"><g transform="translate(-200 -960)" fill="#FFF"><g transform="translate(28 919)"><g transform="translate(0 37.779)"><path d="M203.5 14.686L182.145 3.798v6.39l-10.05-5.124v19.923l10.05-5.124v6.42L203.5 15.395v8.318h3.769V6.33H203.5v8.355z"/></g></g></g></g></svg>
